img/logos/nodejs.svg

<?xml version="1.0" encoding="UTF-8" standalone="no"?>
<svg width="512px" height="145px" viewBox="0 0 512 145" version="1.1" xmlns="http://www.w3.org/2000/svg" xmlns:xlink="http://www.w3.org/1999/xlink" preserveAspectRatio="xMinYMin meet">
	<g>
		<g transform="translate(430.000000, 51.000000)" fill="#83CD29">
			<path d="M41.05074,0.611069871 C39.8059918,0.611069871 38.5958072,0.868477019 37.5251891,1.47447311 L3.63669667,21.0448904 C1.4436614,22.3075289 0.111142826,24.6942002 0.111142826,27.2326019 L0.111142826,66.3016057 C0.111142826,68.8386278 1.4436614,71.2225309 3.63669667,72.4890906 L12.4865556,77.5976613 C16.7862925,79.7167862 18.3720777,79.6840934 20.3291181,79.6840934 C26.6952619,79.6840934 30.3301774,75.821352 30.3301774,69.107544 L30.3301774,30.5423084 C30.3301774,29.9970971 29.8581835,29.6068384 29.322874,29.6068384 L25.0778249,29.6068384 C24.5338755,29.6068384 24.0705165,29.9970971 24.0705165,30.5423084 L24.0705165,69.107544 C24.0705165,72.0834013 20.9709106,75.0760693 15.9401609,72.5611474 L6.73055637,67.165009 C6.40533818,66.9877278 6.15494713,66.6748276 6.15494713,66.3016057 L6.15494713,27.2326019 C6.15494713,26.861685 6.40246256,26.4850135 6.73055637,26.2973677 L40.5470903,6.79878124 C40.8636676,6.61688989 41.240684,6.61688989 41.5543927,6.79878124 L75.3709266,26.2973677 C75.6932662,26.4907681 75.9465258,26.850403 75.9465258,27.2326019 L75.9465258,66.3016057 C75.9465258,66.6748276 75.7593432,67.0570271 75.4428751,67.2368483 L41.5543927,86.7354355 C41.2637099,86.9081138 40.8636676,86.9081138 40.5470903,86.7354355 L31.8411275,81.5550245 C31.5821035,81.4030667 31.2281152,81.4145762 30.9777241,81.5550245 C28.5745985,82.9173583 28.122746,83.0757597 25.8692717,83.8574304 C25.3138208,84.0508302 24.4705588,84.3517589 26.1570768,85.296433 L37.5251891,91.9876768 C38.6073167,92.6139219 39.8131989,92.9229104 41.05074,92.9229104 C42.3055478,92.9229104 43.4941663,92.6139219 44.5762938,91.9876768 L78.4647783,72.4890906 C80.6578216,71.2135543 81.9903321,68.8386278 81.9903321,66.3016057 L81.9903321,27.2326019 C81.9903321,24.6942002 80.6578216,22.3128296 78.4647783,21.0448904 L44.5762938,1.47447311 C43.5143086,0.868477019 42.2954911,0.611069871 41.05074,0.611069871 L41.05074,0.611069871 L41.05074,0.611069871 Z"></path>
			<path d="M50.1164484,28.5281605 C40.4665009,28.5281605 34.7191316,32.6349582 34.7191316,39.4645721 C34.7191316,46.8734793 40.4233346,48.9090294 49.6847463,49.8253846 C60.7650655,50.9100531 61.6284598,52.5369276 61.6284598,54.7179915 C61.6284598,58.5010693 58.6123109,60.1141298 51.4835015,60.1141298 C42.5271556,60.1141298 40.5585988,57.8782729 39.8995345,53.422895 C39.821931,52.9451399 39.4534463,52.5594916 38.9641917,52.5594916 L34.5752345,52.5594916 C34.0341707,52.5594916 33.5679341,53.0248034 33.5679341,53.566793 C33.5679341,59.2698418 36.6704167,66.0142735 51.4835015,66.0142735 C62.2069457,66.0142735 68.3917704,61.8050213 68.3917704,54.4301964 C68.3917704,47.1191416 63.3955562,45.1568022 52.9944545,43.7815795 C42.4839793,42.3909271 41.4824421,41.7103411 41.4824421,39.2488439 C41.4824421,37.2169698 42.3314524,34.4999078 50.1164484,34.4999078 C57.069702,34.4999078 59.6397617,35.9994592 60.693108,40.6878463 C60.7852069,41.1285245 61.1737407,41.4791737 61.6284598,41.4791737 L66.017415,41.4791737 C66.2879474,41.4791737 66.5498479,41.3134022 66.7369213,41.1193119 C66.92111,40.9120974 67.050622,40.6786337 67.0247174,40.4000422 C66.3455108,32.3257429 60.9607627,28.5281605 50.1164484,28.5281605 L50.1164484,28.5281605 L50.1164484,28.5281605 Z"></path>
		</g>
		<g>
			<path d="M271.82097,0.382616383 C271.449319,0.387154591 271.0734,0.47585842 270.741721,0.670411431 C270.079478,1.05921793 269.662462,1.77326878 269.662462,2.54111554 L269.662462,57.5828171 C269.662462,58.1236444 269.410629,58.6069183 268.942966,58.878149 C268.474123,59.1500602 267.902001,59.1500602 267.432014,58.878149 L258.438257,53.6977383 C257.09826,52.9250537 255.461544,52.9255166 254.121249,53.6977383 L218.218163,74.4193628 C216.87586,75.193663 216.059655,76.6833118 216.059655,78.2326019 L216.059655,119.675851 C216.059655,121.22398 216.877012,122.64157 218.218163,123.41725 L254.121249,144.138875 C255.46355,144.913402 257.095954,144.913402 258.438257,144.138875 L294.341342,123.41725 C295.682491,122.64157 296.49985,121.22398 296.49985,119.675851 L296.49985,16.355532 C296.49985,14.7838414 295.642201,13.3088781 294.269394,12.542175 L272.900219,0.598462669 C272.564647,0.41127971 272.192623,0.378586452 271.82097,0.382734375 L271.82097,0.382616383 L271.82097,0.382616383 Z M40.861215,52.1146114 C40.1765444,52.1422036 39.5332989,52.2619579 38.9185621,52.6183707 L3.01546727,73.3399954 C1.6776578,74.1133696 0.856968117,75.5219843 0.856968117,77.0814036 L0.92876258,132.698695 C0.92876258,133.472305 1.32786174,134.190649 2.00802124,134.569626 C2.67467503,134.968635 3.50211756,134.968635 4.16652041,134.569626 L25.4637442,122.337883 C26.8128176,121.536417 27.6941922,120.142315 27.6941922,118.596484 L27.6941922,92.6226174 C27.6941922,91.0733274 28.5092001,89.6513705 29.8527005,88.8812093 L38.9184078,83.6289768 C39.5950366,83.2377923 40.3214494,83.0533687 41.076907,83.0533687 C41.816862,83.0533687 42.5775021,83.2375655 43.2354152,83.6289768 L52.3011226,88.8812093 C53.6445777,89.6513705 54.4596216,91.0733274 54.4596216,92.6226174 L54.4596216,118.596484 C54.4596216,120.142315 55.3498006,121.545402 56.6900787,122.337883 L77.9873027,134.569626 C78.6561529,134.968635 79.4824335,134.968635 80.1458019,134.569626 C80.8068918,134.190649 81.2250514,133.472305 81.2250514,132.698695 L81.2968458,77.0814036 C81.2968458,75.5219843 80.4852507,74.1133696 79.1383468,73.3399954 L43.2353335,52.6183707 C42.6280759,52.2619579 41.98198,52.1426938 41.2926808,52.1146114 L40.8609791,52.1146114 L40.861215,52.1146114 L40.861215,52.1146114 Z M363.485373,52.6183707 C362.735297,52.617463 362.000317,52.8071692 361.326865,53.1939698 L325.423779,73.9155945 C324.082629,74.6901215 323.265279,76.1077127 323.265279,77.6570027 L323.265279,119.100243 C323.265279,120.658509 324.143068,122.071499 325.495728,122.841651 L361.111017,143.131574 C362.426264,143.882621 364.032191,143.938794 365.356068,143.202915 L386.941094,131.187136 C387.626057,130.807233 388.089416,130.097639 388.092294,129.316431 C388.096832,128.534997 387.689373,127.834607 387.013045,127.445727 L350.894104,106.724103 C350.217774,106.338455 349.742905,105.557021 349.742905,104.781341 L349.742905,91.830328 C349.742905,91.0560279 350.223528,90.3464245 350.894104,89.9598507 L362.118319,83.4841173 C362.786016,83.0977705 363.606244,83.0977705 364.276817,83.4841173 L375.501033,89.9598507 C376.171609,90.3464245 376.580284,91.0560279 376.580284,91.830328 L376.580284,102.047469 C376.580284,102.822913 376.988958,103.531364 377.659533,103.917938 C378.332985,104.305664 379.147465,104.30727 379.818041,103.917938 L401.331111,91.3988532 C402.666507,90.6231735 403.489611,89.2018974 403.489611,87.6574541 L403.489611,77.6562765 C403.489611,76.1115883 402.669384,74.6905481 401.331111,73.9148683 L365.643871,53.1932438 C364.971845,52.8036838 364.235447,52.6185703 363.485373,52.6176444 L363.485373,52.6183707 L363.485373,52.6183707 Z M256.135849,83.5569102 C256.323034,83.5569102 256.543372,83.6029276 256.711451,83.6996549 L269.014915,90.8228275 C269.348764,91.0162278 269.590514,91.3724136 269.590514,91.7580614 L269.590514,106.004179 C269.590514,106.39098 269.351067,106.747393 269.014915,106.93965 L256.711451,114.062586 C256.376447,114.25369 255.967202,114.25369 255.6322,114.062586 L243.328734,106.93965 C242.993734,106.74625 242.753136,106.39098 242.753136,106.004179 L242.753136,91.7580614 C242.753136,91.3724136 242.994885,91.0171535 243.328734,90.8228275 L255.6322,83.7008076 C255.800277,83.6041075 255.94864,83.5580627 256.135849,83.5580627 L256.135849,83.5569102 L256.135849,83.5569102 Z" fill="#404137"></path>
			<path d="M148.714379,52.4024062 C147.966237,52.4024062 147.225883,52.5912049 146.55588,52.9780056 L110.652794,73.6277994 C109.310492,74.4014006 108.494286,75.8931279 108.494286,77.4410383 L108.494286,118.884279 C108.494286,120.434032 109.311363,121.85047 110.652794,122.625687 L146.55588,143.347311 C147.898182,144.122528 149.530585,144.122528 150.872887,143.347311 L186.775973,122.625687 C188.11597,121.85047 188.934481,120.434032 188.934481,118.884279 L188.934481,77.4410383 C188.934481,75.8908316 188.118276,74.4014006 186.775973,73.6277994 L150.872887,52.9780056 C150.202884,52.5912049 149.462521,52.4024062 148.714379,52.4024062 L148.714379,52.4024062 L148.714379,52.4024062 Z" fill="#83CD29"></path>
			<path d="M363.413425,89.3854405 C363.26998,89.3854405 363.111233,89.3854405 362.981723,89.4567813 L356.074513,93.4859844 C355.815491,93.63334 355.642812,93.9075478 355.642812,94.2054813 L355.642812,102.11999 C355.642812,102.417924 355.815491,102.690987 356.074513,102.839496 L362.981723,106.796632 C363.240737,106.946284 363.517032,106.946284 363.773167,106.796632 L370.680375,102.839496 C370.93652,102.692141 371.112076,102.417924 371.112076,102.11999 L371.112076,94.2054813 C371.112076,93.9075478 370.936641,93.6342569 370.680375,93.4859844 L363.773167,89.4567813 C363.645154,89.3808116 363.556977,89.3854405 363.413425,89.3854405 L363.413425,89.3854405 L363.413425,89.3854405 Z" fill="#83CD29"></path>
		</g>
	</g>
</svg>

<svg width="512" height="145" viewBox="0 0 512 145" xmlns="http://www.w3.org/2000/svg" preserveAspectRatio="xMinYMin meet"><g fill="#83CD29"><path d="M471.05 51.61c-1.244 0-2.454.258-3.525.864l-33.888 19.57c-2.193 1.264-3.526 3.65-3.526 6.19V117.3c0 2.537 1.334 4.92 3.527 6.187l8.85 5.108c4.3 2.12 5.885 2.086 7.842 2.086 6.365 0 10-3.863 10-10.576V81.542c0-.545-.472-.935-1.007-.935h-4.245c-.544 0-1.007.39-1.007.935v38.566c0 2.975-3.1 5.968-8.13 3.453l-9.21-5.395c-.325-.177-.575-.49-.575-.863v-39.07c0-.37.247-.747.576-.935L470.548 57.8c.317-.183.694-.183 1.007 0l33.817 19.497c.323.194.577.553.577.936v39.07c0 .372-.188.754-.504.934l-33.89 19.498c-.29.173-.69.173-1.006 0l-8.706-5.18c-.258-.152-.612-.14-.862 0-2.403 1.362-2.855 1.52-5.11 2.302-.554.194-1.397.495.29 1.44l11.367 6.69c1.082.627 2.288.936 3.526.936 1.256 0 2.444-.31 3.526-.935l33.89-19.5c2.192-1.274 3.524-3.65 3.524-6.186v-39.07c0-2.538-1.332-4.92-3.525-6.187l-33.89-19.57c-1.06-.607-2.28-.864-3.524-.864z"/><path d="M480.116 79.528c-9.65 0-15.397 4.107-15.397 10.937 0 7.408 5.703 9.444 14.965 10.36 11.08 1.085 11.943 2.712 11.943 4.893 0 3.783-3.016 5.396-10.144 5.396-8.957 0-10.925-2.236-11.584-6.69-.078-.48-.447-.865-.936-.865h-4.39c-.54 0-1.006.465-1.006 1.007 0 5.703 3.102 12.447 17.916 12.447 10.723 0 16.908-4.21 16.908-11.584 0-7.31-4.996-9.273-15.398-10.648-10.51-1.39-11.512-2.072-11.512-4.533 0-2.033.85-4.75 8.634-4.75 6.954 0 9.524 1.5 10.577 6.188.092.44.48.79.935.79h4.39c.27 0 .532-.165.72-.36.183-.206.313-.44.287-.718-.68-8.074-6.064-11.872-16.91-11.872z"/></g><path d="M271.82.383c-.37.004-.747.093-1.078.287-.663.39-1.08 1.103-1.08 1.87v55.043c0 .54-.25 1.024-.72 1.295-.468.272-1.04.272-1.51 0l-8.994-5.18c-1.34-.773-2.976-.772-4.317 0l-35.902 20.72c-1.342.776-2.158 2.265-2.158 3.815v41.443c0 1.548.817 2.966 2.158 3.74l35.903 20.723c1.344.773 2.976.773 4.318 0l35.903-20.723c1.342-.775 2.16-2.193 2.16-3.74V16.356c0-1.573-.858-3.048-2.23-3.815L272.9.598c-.335-.187-.707-.22-1.08-.215zM40.86 52.115c-.683.027-1.327.147-1.94.503L3.014 73.34c-1.337.773-2.158 2.182-2.158 3.74L.93 132.7c0 .772.398 1.49 1.078 1.87.667.4 1.494.4 2.16 0l21.296-12.232c1.35-.802 2.23-2.196 2.23-3.742V92.623c0-1.55.815-2.972 2.16-3.742l9.064-5.25c.677-.392 1.403-.577 2.16-.577.74 0 1.5.185 2.157.576l9.066 5.25c1.345.77 2.16 2.193 2.16 3.743v25.973c0 1.546.89 2.95 2.23 3.742l21.297 12.232c.67.4 1.495.4 2.16 0 .66-.38 1.078-1.098 1.078-1.87l.072-55.62c0-1.558-.812-2.967-2.16-3.74L43.236 52.618c-.607-.356-1.253-.475-1.942-.503h-.432zm322.625.503c-.75 0-1.485.19-2.158.576l-35.903 20.722c-1.34.774-2.16 2.192-2.16 3.74V119.1c0 1.56.88 2.97 2.232 3.742l35.615 20.29c1.316.75 2.922.807 4.246.07l21.585-12.015c.686-.38 1.15-1.09 1.152-1.87.005-.782-.403-1.482-1.08-1.87l-36.118-20.723c-.676-.386-1.15-1.167-1.15-1.943V91.83c0-.774.48-1.484 1.15-1.87l11.224-6.476c.668-.386 1.488-.386 2.16 0L375.5 89.96c.672.386 1.08 1.096 1.08 1.87v10.217c0 .776.41 1.484 1.08 1.87.673.39 1.487.39 2.158 0L401.33 91.4c1.337-.777 2.16-2.198 2.16-3.743v-10c0-1.545-.82-2.966-2.16-3.742l-35.686-20.722c-.672-.39-1.41-.574-2.16-.575zm-107.35 30.94c.188 0 .408.045.576.142l12.305 7.123c.334.193.576.55.576.935v14.246c0 .387-.24.743-.575.936l-12.304 7.123c-.334.19-.743.19-1.078 0l-12.303-7.123c-.336-.194-.577-.55-.577-.936V91.758c0-.386.242-.74.576-.935L255.63 83.7c.168-.096.317-.142.504-.142z" fill="#404137"/><path d="M148.714 52.402c-.748 0-1.488.19-2.158.576l-35.903 20.65c-1.343.773-2.16 2.265-2.16 3.813v41.444c0 1.55.818 2.966 2.16 3.742l35.903 20.72c1.342.777 2.975.777 4.317 0l35.903-20.72c1.34-.776 2.158-2.192 2.158-3.742V77.44c0-1.55-.816-3.04-2.158-3.812l-35.903-20.65c-.67-.387-1.41-.576-2.16-.576zM363.413 89.385c-.143 0-.302 0-.43.072l-6.908 4.03c-.26.146-.432.42-.432.718v7.915c0 .298.172.57.432.72l6.907 3.957c.26.15.535.15.79 0l6.908-3.958c.257-.148.432-.422.432-.72v-7.915c0-.297-.175-.57-.432-.72l-6.907-4.028c-.128-.076-.216-.072-.36-.072z" fill="#83CD29"/></svg>
